packages/katcn/src/icons/svg/scale-solid.svg

<svg width="24" height="25" viewBox="0 0 24 25" fill="none" xmlns="http://www.w3.org/2000/svg">
<path d="M21 17.012C20.4 17.012 20 17.412 20 18.012V18.812C20 19.612 19.3 20.312 18.5 20.312H17.7C17.1 20.312 16.7 20.712 16.7 21.312C16.7 21.912 17.1 22.312 17.7 22.312H18.5C20.4 22.312 22 20.812 22 18.812V18.012C22 17.512 21.6 17.012 21 17.012Z" fill="black"/>
<path d="M21 9.31201C20.4 9.31201 20 9.71201 20 10.312V14.612C20 15.212 20.4 15.612 21 15.612C21.6 15.612 22 15.212 22 14.612V10.312C22 9.71201 21.6 9.31201 21 9.31201Z" fill="black"/>
<path d="M18.5 2.31201H17.7C17.1 2.31201 16.7 2.71201 16.7 3.31201C16.7 3.91201 17.1 4.31201 17.7 4.31201H18.5C19.3 4.31201 20 5.01201 20 5.81201V6.61201C20 7.21201 20.4 7.61201 21 7.61201C21.6 7.61201 22 7.21201 22 6.61201V5.81201C22 3.81201 20.5 2.31201 18.5 2.31201Z" fill="black"/>
<path d="M14 2.31201H10C9.4 2.31201 9 2.71201 9 3.31201C9 3.91201 9.4 4.31201 10 4.31201H14C14.6 4.31201 15 3.91201 15 3.31201C15 2.71201 14.6 2.31201 14 2.31201Z" fill="black"/>
<path d="M3 7.61201C3.6 7.61201 4 7.21201 4 6.61201V5.81201C4 5.01201 4.7 4.31201 5.5 4.31201H6.3C6.9 4.31201 7.3 3.91201 7.3 3.31201C7.3 2.71201 6.9 2.31201 6.3 2.31201H5.5C3.5 2.31201 2 3.81201 2 5.81201V6.61201C2 7.11201 2.4 7.61201 3 7.61201Z" fill="black"/>
<path d="M14 20.312H13.5C13.7 19.912 13.8 19.412 13.8 18.812V13.912C13.8 12.012 12.3 10.412 10.3 10.412H5.5C5 10.412 4.5 10.512 4 10.712V10.312C4 9.71201 3.6 9.31201 3 9.31201C2.4 9.31201 2 9.71201 2 10.312V13.912V15.912V18.012V18.812C2 20.812 3.5 22.312 5.5 22.312H6.3H9.7H10.4H14C14.6 22.312 15 21.912 15 21.312C15 20.712 14.6 20.312 14 20.312Z" fill="black"/>
</svg>

<svg xmlns="http://www.w3.org/2000/svg" fill="none" viewBox="0 0 24 25"><path fill="#000" d="M21 17.012c-.6 0-1 .4-1 1v.8c0 .8-.7 1.5-1.5 1.5h-.8c-.6 0-1 .4-1 1s.4 1 1 1h.8c1.9 0 3.5-1.5 3.5-3.5v-.8c0-.5-.4-1-1-1m0-7.7c-.6 0-1 .4-1 1v4.3c0 .6.4 1 1 1s1-.4 1-1v-4.3c0-.6-.4-1-1-1m-2.5-7h-.8c-.6 0-1 .4-1 1s.4 1 1 1h.8c.8 0 1.5.7 1.5 1.5v.8c0 .6.4 1 1 1s1-.4 1-1v-.8c0-2-1.5-3.5-3.5-3.5m-4.5 0h-4c-.6 0-1 .4-1 1s.4 1 1 1h4c.6 0 1-.4 1-1s-.4-1-1-1m-11 5.3c.6 0 1-.4 1-1v-.8c0-.8.7-1.5 1.5-1.5h.8c.6 0 1-.4 1-1s-.4-1-1-1h-.8c-2 0-3.5 1.5-3.5 3.5v.8c0 .5.4 1 1 1m11 12.7h-.5q.3-.6.3-1.5v-4.9c0-1.9-1.5-3.5-3.5-3.5H5.5q-.75 0-1.5.3v-.4c0-.6-.4-1-1-1s-1 .4-1 1v8.5c0 2 1.5 3.5 3.5 3.5H14c.6 0 1-.4 1-1s-.4-1-1-1"/></svg>
